suite-common/icons/assets/icons/share.svg

<svg xmlns="http://www.w3.org/2000/svg" xml:space="preserve" fill="none" viewBox="0 0 25 24">
  <path fill="#000" fill-rule="evenodd" d="M14.79 3.094a.73.73 0 0 0 0 1.312c.185.094.195.094 2.167.094h1.98l-2.779 2.781c-1.941 1.942-2.799 2.828-2.844 2.936a.7.7 0 0 0 .014.596.63.63 0 0 0 .391.373.7.7 0 0 0 .564 0c.108-.045.994-.903 2.936-2.844L20 5.563v1.98c0 1.972 0 1.982.094 2.167a.73.73 0 0 0 1.312 0l.094-.186V6.573c0-2.561-.008-2.971-.064-3.104a.63.63 0 0 0-.373-.391c-.157-.072-.344-.076-3.127-.077L14.976 3zM4.681 6.043c-.433.086-.841.419-1.043.853l-.117.25v12.708l.116.25c.152.326.436.61.754.758l.255.117h12.708l.255-.117c.318-.148.602-.432.754-.758l.116-.25.012-3.25.011-3.25-.095-.187a.73.73 0 0 0-1.313-.002l-.094.186V19.5H5v-12h6.149l.186-.094a.73.73 0 0 0 0-1.312L11.149 6l-3.147.005c-1.731.002-3.226.02-3.321.038"/>
</svg>

<svg xmlns="http://www.w3.org/2000/svg" xml:space="preserve" fill="none" viewBox="0 0 25 24"><path d="M14.790 3.094 C 14.244 3.370,14.244 4.130,14.790 4.406 C 14.975 4.500,14.985 4.500,16.957 4.500 L 18.937 4.500 16.158 7.281 C 14.217 9.223,13.359 10.109,13.314 10.217 C 13.230 10.421,13.234 10.608,13.328 10.813 C 13.419 11.011,13.512 11.100,13.719 11.186 C 13.913 11.267,14.086 11.267,14.283 11.186 C 14.391 11.141,15.277 10.283,17.219 8.342 L 20.000 5.563 20.000 7.543 C 20.000 9.515,20.000 9.525,20.094 9.710 C 20.370 10.256,21.130 10.256,21.406 9.710 L 21.500 9.524 21.500 6.573 C 21.500 4.012,21.492 3.602,21.436 3.469 C 21.350 3.262,21.261 3.169,21.063 3.078 C 20.906 3.006,20.719 3.002,17.936 3.001 L 14.976 3.000 14.790 3.094 M4.681 6.043 C 4.248 6.129,3.840 6.462,3.638 6.896 L 3.521 7.146 3.521 13.500 L 3.521 19.854 3.637 20.104 C 3.789 20.430,4.073 20.714,4.391 20.862 L 4.646 20.979 11.000 20.979 L 17.354 20.979 17.609 20.862 C 17.927 20.714,18.211 20.430,18.363 20.104 L 18.479 19.854 18.491 16.604 L 18.502 13.354 18.407 13.167 C 18.129 12.619,17.370 12.618,17.094 13.165 L 17.000 13.351 17.000 16.425 L 17.000 19.500 11.000 19.500 L 5.000 19.500 5.000 13.500 L 5.000 7.500 8.075 7.500 L 11.149 7.500 11.335 7.406 C 11.881 7.130,11.881 6.370,11.335 6.094 L 11.149 6.000 8.002 6.005 C 6.271 6.007,4.776 6.025,4.681 6.043 " stroke="none" fill-rule="evenodd" fill="black"></path></svg>
